Numix-GalliumOS/16/mimetypes/application-json.svg

<?xml version="1.0" encoding="UTF-8" standalone="no"?>
<svg
   xmlns:dc="http://purl.org/dc/elements/1.1/"
   xmlns:cc="http://creativecommons.org/ns#"
   xmlns:rdf="http://www.w3.org/1999/02/22-rdf-syntax-ns#"
   xmlns:svg="http://www.w3.org/2000/svg"
   xmlns="http://www.w3.org/2000/svg"
   xmlns:sodipodi="http://sodipodi.sourceforge.net/DTD/sodipodi-0.dtd"
   xmlns:inkscape="http://www.inkscape.org/namespaces/inkscape"
   width="16"
   height="16"
   viewBox="0 0 16 16"
   id="svg2"
   version="1.1"
   inkscape:version="0.91 r13725"
   sodipodi:docname="application-json-neu.svg">
  <metadata
     id="metadata20">
    <rdf:RDF>
      <cc:Work
         rdf:about="">
        <dc:format>image/svg+xml</dc:format>
        <dc:type
           rdf:resource="http://purl.org/dc/dcmitype/StillImage" />
        <dc:title></dc:title>
      </cc:Work>
    </rdf:RDF>
  </metadata>
  <defs
     id="defs18" />
  <sodipodi:namedview
     pagecolor="#ffffff"
     bordercolor="#666666"
     borderopacity="1"
     objecttolerance="10"
     gridtolerance="10"
     guidetolerance="10"
     inkscape:pageopacity="0"
     inkscape:pageshadow="2"
     inkscape:window-width="1366"
     inkscape:window-height="713"
     id="namedview16"
     showgrid="false"
     inkscape:zoom="1"
     inkscape:cx="5.8722958"
     inkscape:cy="8.2643955"
     inkscape:window-x="0"
     inkscape:window-y="28"
     inkscape:window-maximized="1"
     inkscape:current-layer="svg2">
    <inkscape:grid
       type="xygrid"
       id="grid3008" />
  </sodipodi:namedview>
  <path
     style="fill:#e5b819;fill-opacity:1"
     d="M 2.667969,-4.461e-4 C 2.324219,-4.461e-4 2,0.3378119 2,0.6964466 L 2,15.303108 C 2,15.641365 2.34375,16 2.667969,16 l 10.664062,0 C 13.65625,16 14,15.641365 14,15.303108 L 14,3.9995537 9.9999996,-4.461e-4 z"
     id="path4-5"
     inkscape:connector-curvature="0"
     sodipodi:nodetypes="ssssssccs" />
  <path
     style="fill:#000000;fill-opacity:0.19599998"
     d="m 10.583223,3.3315847 0.0154,0.01953 0.04005,-0.01953 z m 0.02978,0.667969 3.387,3.664062 0,-3.664062 z"
     id="path6"
     inkscape:connector-curvature="0"
     sodipodi:nodetypes="cccccccc" />
  <path
     style="fill:#ffffff;fill-opacity:0.39200003"
     d="m 9.9999996,-4.461e-4 3.9963964,3.9999998 -3.383784,0 c -0.299099,0 -0.6126124,-0.317117 -0.6126124,-0.616216 z"
     id="path8"
     inkscape:connector-curvature="0"
     sodipodi:nodetypes="ccssc" />
  <g
     id="g3338"
     transform="matrix(1,0,0,0.98319322,0,-0.28151186)">
    <path
       sodipodi:nodetypes="csccccccc"
       inkscape:connector-curvature="0"
       id="path3364-3"
       d="m 8,6.3888885 c -1.8869431,0 -3.5,1.4074436 -3.5,3.3055558 C 4.5,11.347222 5.6651619,12.586806 6.9111111,13 6.0832852,12.430554 5.3235293,11.347222 5.3235293,10.107639 c 0,-1.4276426 1.029412,-2.4791669 2.2272103,-2.4791669 1.1183781,0 1.8861556,1.0689674 1.8904369,2.0659722 0,0.6998627 -0.5717376,1.2753087 -1.0294116,1.6527777 0.8235293,0 1.8529411,-0.684353 1.8529411,-2.065972 C 10.264706,8.0416664 9.2352942,6.3888885 8,6.3888885 Z"
       style="fill:#ffffff;fill-opacity:1;fill-rule:evenodd;stroke:none;stroke-width:1px;stroke-linecap:butt;stroke-linejoin:miter;stroke-opacity:1" />
    <path
       style="fill:#ffffff;fill-opacity:1;fill-rule:evenodd;stroke:none;stroke-width:1px;stroke-linecap:butt;stroke-linejoin:miter;stroke-opacity:1"
       d="m 8,13 c 1.8869427,0 3.5,-1.407444 3.5,-3.3055557 0,-1.6527779 -1.165162,-2.8923616 -2.4111111,-3.3055558 0.8278257,0.5694447 1.5875821,1.6527779 1.5875821,2.8923615 0,1.427642 -1.0294123,2.479166 -2.2272106,2.479166 -1.1183781,0 -1.8861556,-1.068967 -1.8904369,-2.0659718 0,-0.6998626 0.5717377,-1.275309 1.0294116,-1.6527778 -0.8235293,0 -1.8529409,0.6843532 -1.8529409,2.0659716 C 5.7352942,11.347222 6.7647058,13 8,13 Z"
       id="path4189-8"
       inkscape:connector-curvature="0"
       sodipodi:nodetypes="csccccccc" />
  </g>
</svg>

<svg xmlns="http://www.w3.org/2000/svg" viewBox="0 0 16 16">
 <path d="m 2.668 0 c -0.344 0 -0.668 0.338 -0.668 0.697 l 0 14.607 c 0 0.338 0.344 0.697 0.668 0.697 l 10.664 0 c 0.324 0 0.668 -0.359 0.668 -0.697 l 0 -11.304 -4 -4 z" style="fill:#e5b819;fill-opacity:1"/>
 <path d="m 10.583 3.332 0.015 0.02 0.04 -0.02 z m 0.03 0.668 3.387 3.664 0 -3.664 z" style="fill:#000;fill-opacity:0.196"/>
 <path d="m 10 0 3.996 4 -3.384 0 c -0.299 0 -0.613 -0.317 -0.613 -0.616 z" style="fill:#fff;fill-opacity:0.392"/>
 <g transform="matrix(1,0,0,0.98319322,0,-0.28151186)">
  <path d="m 8 6.389 c -1.887 0 -3.5 1.407 -3.5 3.306 c 0 1.653 1.165 2.892 2.411 3.306 -0.828 -0.569 -1.588 -1.653 -1.588 -2.892 c 0 -1.428 1.029 -2.479 2.227 -2.479 1.118 0 1.886 1.069 1.89 2.066 0 0.7 -0.572 1.275 -1.029 1.653 0.824 0 1.853 -0.684 1.853 -2.066 c 0 -1.24 -1.029 -2.892 -2.265 -2.892" style="fill:#fff;fill-opacity:1;stroke:none;fill-rule:evenodd"/>
  <path d="m 8 13 c 1.887 0 3.5 -1.407 3.5 -3.306 0 -1.653 -1.165 -2.892 -2.411 -3.306 0.828 0.569 1.588 1.653 1.588 2.892 0 1.428 -1.029 2.479 -2.227 2.479 -1.118 0 -1.886 -1.069 -1.89 -2.066 0 -0.7 0.572 -1.275 1.029 -1.653 -0.824 0 -1.853 0.684 -1.853 2.066 c 0 1.24 1.029 2.892 2.265 2.892" style="fill:#fff;fill-opacity:1;stroke:none;fill-rule:evenodd"/>
 </g>
</svg>
